X:1
T:The Gallant Sailor
T:The Gallant Sailor
T:Ur Ulrika Elisabet Taubes Notebok 1767
T:Anonymous editing and Continuo A.Stenberg
T:Sailor: Can the Sons of Britain fail her, While her Daughters are so true, Can the Sons of Britain fail her, While her Daughters are so true. Your soft Courage must avail her, We love Honour loving You, We love Honour loving You, We love Honour loving You. 
T:Boatswain: War and Danger now invite us, Blow Ye winds auspicious blow, War and Danger now invite us, Blow Ye winds auspicious blow, Ev ry Gale will, must delight us That can waft us to the Foe. Ev ry Gale will, must delight us, That can waft us to the Foe. 
T:© 2006 by Anders Stenberg (CPDL -License)
T:© 2006 by Anders Stenberg (CPDL -License)
T:© 2006 by Anders Stenberg (CPDL -License)
C:Anonymous
C:editing and Continuo A.Stenberg
Z:© 2006 by Anders Stenberg (CPDL -License)
%%score 1 { ( 2 4 ) | 3 }
L:1/8
Q:1/4=60
M:4/4
K:Bb
V:1 treble nm="Mezzo-soprano"
V:2 treble nm="Harpsichord"
V:4 treble 
V:3 bass 
V:1
"^\n" z4 | z8 | z8 | z8 | z8 | z8 | z8 | z8 | z4 || B2 F2 | G2 A2 B2 (d f) |{f} e2 d2 c3 B | %12
w: |||||||||Hear me|Gal\- lant sail\- lor _|hear me while your|
 (A F) d B A2 TG2 | F4 A3 c | f2 B2 z2 e e |{f} e2 !fermata!d2 c3 B | A4 z4 | z2 (B f) e2 d2 | %18
w: count\- * ry * has a|Foe. He is|mine too ne\- ver|fear me I may|weep,|But * you must|
 !fermata!c4 B3 _A |{_A} G4 c3 B |{B} A4 f2 B2 | !fermata!e8 | z3 d c2 f2 | B4 z4 | z8 | z4 |] %26
w: go, I may|weep, I may|* I may|weep|but you must|go.|||
 B3 F | G2 A2 B2 (d f) | e2 d2 c3 B | (A/ F3/2) (d/ B3/2) A2 G2 | F4 A2 c2 | f3 B e3 e | %32
w: Though this|Flow' ry sea\- son *|woos you to the|peace\- * full * sports of|May, And love|sighs so long to|
{f} f2 !fermata!d2 c3 B | A2 B2 e2 d2 |{d} c4 B2 (c d) | e2 E2 c2 (d =e) | f2 F2 z4 | z4 f2 B2 | %38
w: Loose You, Love to|Glo\- ry shall give|way. Love to *|Glo\- ry, Love to *|Glo\- ry,|Love to|
 e3 d c3 B | B4 z4 | z8 | z4 |] %42
w: glo\- ry must give|way.|||
V:2
 B2 F2 | (GB)(Ac) B2 (df) | e2 d2 c3 B | (AF)(dB) A2 G2 | F4 AFcA | (fd)(cB) (3ede c'e | %6
 Te2 d2 g4 | (fA)(Be) d2 Tc2 | B4 || [FB]4 | B2 c2 f2 d2 | e2 d2 c3 B | A2 [FB]2 [FA]2 [=EG]2 | %13
 F4 [FA]4 | B2 [GB]2 [Gc]2 [FA]2 | [FB]4 A3 B | [Ac]4 z4 | z2 f2 e2 d2 | [Ac]4 B2 [Fd]2 | e4 c3 B | %20
 (B2 A2) B2 [Bf]2 | e8 | z3 d e2 fe | d4 g4 | (fB)(ge) d2 Tc2 | B4 |] [FB]4 | B2 c2 f2 d2 | %28
 e2 d2 c3 B | A2 [FB]2 [FA]2 [=EG]2 | F4 [FA]4 | B2 B2 [Gc]2 [FA]2 | [FB]4 A3 B | [Ac]2 B2 c2 d2 | %34
{d} c4 B2 (cd) | e2 E2 c2 (d=e) | f2 F2 z4 | z4 f4 | e3 d c4 | B4 f2 (ga) | (bB)(ge) d2 Tc2 | B4 |] %42
V:3
 D,2 B,,2 | E,2 C,2 D,2 B,2 | A,2 B,2 A,2"^" G,2 | F,2 B,2 C2 C,2 | F,4 E,4 | D,2 G,2 C,2 A,2 | %6
 B,2 B,,2 z2 E2- | E2 DE F2 F,2 | B,,4 || z2 D,2 | E,2 C,2 D,2 B,2 | A,2 B,2 A,2 G,2 | %12
 F,2 B,2 C2 C,2 | F,4 E,4 | D,2 G,2 C,2 F,2 | !fermata!B,4 E,4 | E,4 z4 | z2 D,2 C,2 B,,2 | %18
 !fermata!F,4 D,2 B,,2 | E,4 =E,2 C,2 | F,4 D,4 | C,8 | z3 B,, E,2 F,2 | B,,4 E,4 | %24
 D,2 E,2 F,2 F,2 | B,,4 |] z2 D,2 | E,2 C,2 D,2 B,2 | A,2 B,2 A,2 G,2 | F,2 B,2 C2 C,2 | F,4 E,4 | %31
 D,4 C,4 | !fermata!B,,4 E,,2 E,2- | E,2 D,2 A,,2 B,,2 | F,,4 B,2 (CD) | E2 E,2 C2 D=E | %36
 F2 F,2 z4 | z4 D,4 | C,2 B,,2 F,4 | B,,4 B,,2 E,2 | D,2 E,2 F,2 F,,2 | B,,4 |] %42
V:4
 x4 | x8 | x8 | x8 | x8 | x8 | x8 | x8 | x4 || x4 | G2 A2 [FB]4 | [Fc]2 [FB]2 F2 =E2 | %12
 F2 D2 C3 B, | [A,C]4 C4 | F2 D2 E2 E2 | E2 D2 F4 | F4 x4 | x2 [FB]2 G2 [FB]2 | E4 F2 B_A | %19
 (_A2 G2) G2 [EG]2 | [CF]3 E F2 F2 | [F_A]8 | x3 [FB] [Gc]2 [Ac]2 | [FB]4 x4 | x8 | x4 |] x4 | %27
 G2 A2 [FB]4 | [Fc]2 [FB]2 F2 =E2 | F2 D2 C3 B, | [A,C]4 C4 | F2 [DG]2 E2 E2 | E2 D2 F4 | %33
 F6 [FB]2 | [FA]4 x4 | x8 | x8 | x4 [FB]4 | G2 [FB]2 [FA]4 | [DF]4 x4 | x8 | x4 |] %42

